icons/lines/video-play.svg

<svg xmlns="http://www.w3.org/2000/svg" width="24" height="24" viewBox="0 0 24 24" fill="none" stroke="currentColor" stroke-width="2" stroke-linecap="round" stroke-linejoin="round">
  <path d="M15.48 2.11v4.41" />
  <path d="M2.52 7.11h18.96" />
  <path d="M22 9c0-5-2-7-7-7H9C4 2 2 4 2 9v6c0 5 2 7 7 7h6c5 0 7-2 7-7z" />
  <path d="M8.52 2.11v4.86" />
  <path d="M9.75 13.25c0-1.54 1.09-2.17 2.42-1.4l2.08 1.2c1.33.77 1.33 2.03 0 2.8l-2.08 1.2c-1.33.77-2.42.14-2.42-1.4z" />
</svg>

<svg xmlns="http://www.w3.org/2000/svg" width="24" height="24" viewBox="0 0 24 24" fill="none" stroke="currentColor" stroke-width="2" stroke-linecap="round" stroke-linejoin="round" >
  <path d="M22 15V9C22 4 20 2 15 2H9C4 2 2 4 2 9V15C2 20 4 22 9 22H15C20 22 22 20 22 15Z"/>
  <path d="M2.52002 7.10999H21.48"/>
  <path d="M8.52002 2.10999V6.96999"/>
  <path d="M15.48 2.10999V6.51999"/>
  <path d="M9.75 14.45V13.25C9.75 11.71 10.84 11.08 12.17 11.85L13.21 12.45L14.25 13.05C15.58 13.82 15.58 15.08 14.25 15.85L13.21 16.45L12.17 17.05C10.84 17.82 9.75 17.19 9.75 15.65V14.45V14.45Z" stroke-miterlimit="10"/>
  </svg>
